public/logo.svg

<svg fill="none" height="198" viewBox="0 0 1739 198" width="1739" xmlns="http://www.w3.org/2000/svg" xmlns:xlink="http://www.w3.org/1999/xlink"><clipPath id="a"><path d="m0 0h1739v198h-1739z"/></clipPath><g clip-path="url(#a)" fill="#ebfa32"><path d="m1211.83 92.952-13.28 3.456c-7.2 1.872-14.18.324-21.88.828-2.27.144-3.6 2.412-6.12 2.772-23.18 3.312-42.22-6.552-51.22 11.808l-13.46 27.432c-1.87 3.816-3.67 11.376-10.83 11.052-3.71-.18-9.32-7.74-8.32-12.384 3.96-18.18 17.03-29.34 10.22-35.928-1.54-1.476-4.67-3.672-7.99-4.572-6.8-1.836-8.92-12.42-3.56-15.516 1.73-1.008 3.96-1.368 4.68-2.736 6.51-1.188 27.21.936 31.85-5.112 4.36-5.724 7.74-11.448 10.19-18.9l3.63-10.908c1.66-5.04 4.65-6.48 8.28-6.516 4.21-.036 9.97.252 10.69 6.372 2.7 22.716-7.49 16.704-9.32 24.732-3.17 13.86 28.97 10.188 40.71 6.948 7.23-2.016 14.97 1.728 20.91-1.116s56.9-11.916 70.32-15.336l12.39-3.168c6.22-1.584 14.39 3.132 14.36 11.232 0 9.828-11.95 14.364-19.66 18.54-6.91 3.744-35.27 32.868-19.97 30.42 2.52-.396 4.5-1.98 6.44-3.6l18.29-15.156c-5.04 4.176 22.78-14.148 19.11-12.924 4.71-1.584 26.45-26.964 40.6-21.204 3.67 26.136-12.17 22.392-18.58 36.828-3.96 8.928-14.97 23.328-6.91 25.056 3.13.684 3.96 2.376 5.15 3.312-.22-.18 17.56-4.032 20.51-5.292l9.43-3.996 15.7-12.852c17.88-14.688 22.31 3.708 34.51-15.516 6.41-10.08 24.12-26.28 33.76-31.068l17.31-8.532c2.63-1.296 7.02-2.736 11.2-2.988l30.16-1.908c16.27-1.044 38.44-37.65604 44.88-40.03204 7.38-2.7 12.81-8.568 21.85-5.580004-1.01 28.908044 5.04 11.700044-12.53 33.948044l-12.24 15.48c-2.59 3.276-4.64 6.012-6.4 9.36l-3.31 6.48c-1.15 2.232-1.66 4.392-3.35 6.48l-12.13 15.084c-1.98 2.448.22 6.372.07 9.576 11.02 2.736 37.87-11.952 46.86-18.756l12.17-9.216c2.09-1.584 3.89-2.592 6.73-3.456-5.69 1.728 54.17-40.14 56.29-13.86.83 10.512-9.75 16.812-11.59 24.552-.29 1.26-16.27 44.424-21.63 45.648-5.83 1.296-12.06.468-13.93-5.616-3.17-10.332 16.85-33.516 7.02-37.944-4.28-1.908-8.06 1.44-10.29 3.276l-18.43 15.12c-3.28 2.7-6.48 4.212-9.68 6.624l-12.2 9.144-6.52 3.492c-15.62 8.388-18.5 13.608-31.42 12.78-27.78-1.764-20.05-25.308-32.72-25.776-8.71-.324-4.64 9.972-26.38 25.056l-9.97 6.912c-4.57 3.168-8.35 6.624-14.25 7.128-10.73.972-12.99 10.008-26.17 2.016-27.78-16.884 3.32 1.44-21.19-19.224-8.97 4.788-11.92 12.132-18.97 15.768l-6.8 3.528c-5.55 2.844-20.59 7.02-20.38 6.912-13.96 6.336-34.01-1.476-38.54-12.996-2.05-5.184 1.83-11.7-1.01-14.94-4-4.608-16.23 4.608-21.27 8.388l-12.17 9.144c-4.71 3.528-24.07 9.864-23.75 9.936-2.77-.432-12.67-4.896-16.3-10.98-12.71-21.492 38.36-48.924 29.72-54.036-7.09-4.176-26.95 3.744-39.41 6.984zm205.44 26.388c14.68 2.844 24.33-10.404 35.05-15.876 7.24-3.708 11.63-10.656 17.93-16.632 2.01-1.908.61-7.632.18-11.34-.43-3.528-5.36-3.456-7.27-3.132 4.86-.828-9 4.788-11.23 6.48l-12.17 9.036-9.32 6.408c-2.73 1.872-4.5 3.924-6.51 6.48l-9.32 11.88c-2.06 2.628.21 6.228 2.62 6.696z"/><path d="m776.585 152.64c-4.643.684-8.638 3.204-13.065 3.528l-23.754 1.764c-3.527.252-6.37 1.62-10.689 2.772l-12.597 3.456c-7.919 2.16-25.411 11.16-29.909 1.26-2.376-5.184-1.656-14.364 0-19.656 4.355-13.86-1.224-4.464 11.805-20.052l17.996-21.564c2.699-3.24 4.786-6.048 6.514-9.396l3.419-6.696c3.167-6.156 28.289-33.66 30.089-41.58 3.815-16.776 5.651-18.54 12.561-22.752 4.031-2.484 15.98 2.052 16.844 9.828 1.224 10.764-14.576 22.86-19.363 33.048-4.067 8.676-33.436 29.592-18.824 31.32 8.782 1.044 25.59-5.544 29.765-8.604 4.463-3.276 11.697 1.008 16.484-1.62 19.616-10.656 51.576 14.076 51.36 27.216-.108 6.012-11.265 19.512-18.716 23.256l-17.455 8.784-14.577 3.096-17.996 2.592zm36.388-41.4c-1.836-2.412-14.721-6.336-23.071-3.276-3.635 1.332-19.219 5.22-21.523 6.336l-27.353 13.608c-2.448 1.224-9.61 2.736-8.35 8.028 1.259 5.292 10.941 2.088 15.26.108-.288.108 79.289-5.868 65.037-24.804z"/><path d="m269.683 169.416c.828-.288-25.59 13.428-30.448 8.64-2.304-2.268-4.391-1.368-7.523-2.412-12.093-4.068-15.764-21.996-15.836-22.104l-3.239-7.344c-1.008-2.268 7.198-7.308 2.843-22.248-4.931-4.464-8.89.9-12.921 4.176 10.618-8.568-36.639 21.204-27.065 16.884-12.813 5.76-29.369 38.736-37.719 36.972-12.849-2.736-7.523-19.908-5.147-26.568 2.015-5.652 5.723-9.432 8.386-13.392 8.998-13.5 6.37-45.828 13.605-52.632 1.367-1.296 4.283-1.872 6.766-3.312 3.923-2.268 13.209 3.096 13.785 8.1.612 5.508.72 8.712 3.599 13.716 5.399 9.396 24.006-6.804 24.762-7.164l17.168-8.208c7.306-3.492 17.456-.972 25.914-.396 6.298.252 3.959 21.096 3.095 24.228l-3.131 11.52c-1.512 5.544-8.998 13.896-4.211 18.576 5.435 5.256 27.821-2.34 39.663-11.268l12.309-9.288c5.866-4.428 32.428-24.012 31.636-5.904-5.183 6.372-11.445 14.256-19.111 18.288-8.89 4.68-12.741 14.724-21.739 18.648-6.695 2.916-9.034 10.404-15.477 12.528z"/><path d="m663.684 110.34c-2.232 9.216-28.505 25.776-31.493 27.9l-9.069 6.372c6.658-4.68-66.621 27.684-72.487 9.036-.684-2.232-2.556-6.696-3.995-7.848-4.391-3.636-14.181.504-20.336-1.512-.647-28.728-2.123-7.74 8.027-28.836l4.031-8.388c2.447-5.076 16.232-20.052 16.196-28.584 0-3.312 5.83-4.428 12.129-18.144 3.491-7.596 2.231-14.4 4.067-20.772 2.231-7.812 9.466-15.444 16.304-12.924 5.003 1.836 9.754 4.176 10.726 7.164 3.347 10.368-13.389 28.656-20.156 47.124-1.907 5.22-8.71 8.1-10.401 15.012-1.044 4.176 5.183 7.92 9.25 4.752l11.805-9.108c-4.967 3.816 21.739-12.672 15.692-9.828l17.168-8.1c9.25-4.356 21.523-.288 32.212-.936 2.268 2.412 3.671 5.868 7.127 6.228 9.537.9 6.226 18.72 5.039 23.616l-1.872 7.704zm-80.981 25.596c4.427-3.78 9.574-3.996 13.965-4.284 7.99-4.896 15.008-8.1 23.61-11.916 9.034-8.424 22.891-16.488 17.564-27.396-2.159-8.028-51.828 21.492-55.571 24.048l-9.394 6.48c-3.671 2.52-6.622 5.472-10.437 9 1.907 3.816 4.139 3.78 7.882 6.912 3.635-2.088 6.91-5.076 12.381-2.88z"/><path d="m406.669 169.524c-6.586-.396-4.391-13.212-23.502-8.532-3.6 5.976-27.282 14.724-31.313 10.728 2.591 2.556-25.338-7.992-18.824-22.572 3.636-8.136 2.484-14.04 20.588-26.28 3.599-2.448 39.266-20.052 42.434-21.096l10.905-3.564c10.437-3.384 30.125-10.548 39.842-5.616 7.343 3.708 5.939 18.72-1.331 20.448-4.571 1.08-16.592 17.172-13.641 23.112 2.627 5.328 9.358 1.764 12.669-.576l9.79-6.84 18.283-15.264c2.088-1.728 7.343-.18 9.106.36.468 3.132 1.98 9.036-.072 10.98-4.967 7.128-37.215 34.272-39.806 35.244-20.731 7.74-2.052 11.484-35.056 9.468zm-12.561-37.656c2.087-4.284-.936-7.776-4.355-5.58-7.738 5.004-35.56 15.912-25.59 16.74 3.059 5.652 27.929-7.056 29.945-11.16z"/><path d="m29.6917 195.696c-6.5144 2.052-11.6252 3.852-18.0677.252-5.97458-3.384-13.71275-7.524-11.157355-17.352.935775-3.636 5.614665-6.948 9.105845-9.504 5.57871-4.104 10.61751-2.556 14.14461.396 9.6098-2.952 12.957-12.492 13.3889-19.62l1.6556-27.036c-.252 3.888 2.8433-15.66 5.4707-19.188 10.9414-14.868 24.1862-26.316 39.2307-32.112 9.6097-3.708 16.664-1.8 26.49 1.224 5.974 1.836 6.442 5.688 6.442 10.908-.036 13.248-24.546 9.18-34.9835 13.932-3.4192 1.548-5.0028 5.148-8.9619 6.408-6.4065 2.052-9.1058 7.812-11.5173 13.536-8.8539 20.88-1.2237 29.016-5.2547 42.588-7.3783 24.696-.252 27.468-25.9499 35.568z"/><path d="m1002.68 161.496c-9.75 3.06-24.074 2.988-28.753-7.272-2.628-5.76.072-11.808 2.375-14.616 7.882-9.756 18.536-1.152 25.378-5.94 13.42-9.396-6.518-35.136 1.04-57.168l2.56-7.416c1.69-4.968 7.19-10.044 12.05-12.42l8.21-4.032c15.44-7.56 17.6-11.952 29.3-5.58 4.46 2.412 6.47 4.356 6.44 8.208-.15 13.968-1.73 6.624-29.26 15.876-21.06 7.056-5.58 37.692-3.35 46.152 1.84 6.876 2.12 16.236.07 22.536-4.17 12.888-14.86 18.18-26.09 21.708z"/><path d="m1721.37 131.328c-4.94.972-11.85 1.512-14.62-.36-13.67-9.18-13.93-21.384-14.61-22.896-7.56-16.8479 2.92-29.5199 4.39-39.0599 1.55-10.044 22.46-15.624 32.5-11.304s9.14 16.092 4.75 22.68c13.43 20.4839-1.8 48.8519-12.38 50.9399zm-5.62-33.9479c0-1.4041-1.15-2.556-2.55-2.556-1.41 0-2.56 1.1519-2.56 2.556 0 1.4039 1.15 2.556 2.56 2.556 1.4 0 2.55-1.1521 2.55-2.556z"/><path d="m1680.3 3.27599c6.05 1.044 3.28 14.25601 2.02 15.94801-2.92 3.816-13.75 5.832-19.87-.792-2.59-2.808-4.25-3.816-4.03-7.092.43-8.13601 14.54-11.34001071 14.29-11.34001071 3.24-.10800029 4.1 2.66400071 7.59 3.27600071z"/><path d="m914.221 134.928-.468 15.804c-5.615.252-9.826.288-14.721 0-2.123-3.204-3.671-4.752-6.874-6.876-.288-4.896-.288-9.072 0-14.76h17.816c1.331 2.844 3.707 3.384 4.211 5.832z"/></g></svg>

<svg width="1739" height="198" viewBox="0 0 1739 198" fill="none" xmlns="http://www.w3.org/2000/svg">
<g clip-path="url(#clip0_2_27)">
<path d="M1211.83 92.952L1198.55 96.408C1191.35 98.28 1184.37 96.732 1176.67 97.236C1174.4 97.38 1173.07 99.648 1170.55 100.008C1147.37 103.32 1128.33 93.456 1119.33 111.816L1105.87 139.248C1104 143.064 1102.2 150.624 1095.04 150.3C1091.33 150.12 1085.72 142.56 1086.72 137.916C1090.68 119.736 1103.75 108.576 1096.94 101.988C1095.4 100.512 1092.27 98.316 1088.95 97.416C1082.15 95.58 1080.03 84.996 1085.39 81.9C1087.12 80.892 1089.35 80.532 1090.07 79.164C1096.58 77.976 1117.28 80.1 1121.92 74.052C1126.28 68.328 1129.66 62.604 1132.11 55.152L1135.74 44.244C1137.4 39.204 1140.39 37.764 1144.02 37.728C1148.23 37.692 1153.99 37.98 1154.71 44.1C1157.41 66.816 1147.22 60.804 1145.39 68.832C1142.22 82.692 1174.36 79.02 1186.1 75.78C1193.33 73.764 1201.07 77.508 1207.01 74.664C1212.95 71.82 1263.91 62.748 1277.33 59.328L1289.72 56.16C1295.94 54.576 1304.11 59.292 1304.08 67.392C1304.08 77.22 1292.13 81.756 1284.42 85.932C1277.51 89.676 1249.15 118.8 1264.45 116.352C1266.97 115.956 1268.95 114.372 1270.89 112.752L1289.18 97.596C1284.14 101.772 1311.96 83.448 1308.29 84.672C1313 83.088 1334.74 57.708 1348.89 63.468C1352.56 89.604 1336.72 85.86 1330.31 100.296C1326.35 109.224 1315.34 123.624 1323.4 125.352C1326.53 126.036 1327.36 127.728 1328.55 128.664C1328.33 128.484 1346.11 124.632 1349.06 123.372L1358.49 119.376L1374.19 106.524C1392.07 91.836 1396.5 110.232 1408.7 91.008C1415.11 80.928 1432.82 64.728 1442.46 59.94L1459.77 51.408C1462.4 50.112 1466.79 48.672 1470.97 48.42L1501.13 46.512C1517.4 45.468 1539.57 8.85596 1546.01 6.47996C1553.39 3.77996 1558.82 -2.08804 1567.86 0.899956C1566.85 29.808 1572.9 12.6 1555.33 34.848L1543.09 50.328C1540.5 53.604 1538.45 56.34 1536.69 59.688L1533.38 66.168C1532.23 68.4 1531.72 70.56 1530.03 72.648L1517.9 87.732C1515.92 90.18 1518.12 94.104 1517.97 97.308C1528.99 100.044 1555.84 85.356 1564.83 78.552L1577 69.336C1579.09 67.752 1580.89 66.744 1583.73 65.88C1578.04 67.608 1637.9 25.74 1640.02 52.02C1640.85 62.532 1630.27 68.832 1628.43 76.572C1628.14 77.832 1612.16 120.996 1606.8 122.22C1600.97 123.516 1594.74 122.688 1592.87 116.604C1589.7 106.272 1609.72 83.088 1599.89 78.66C1595.61 76.752 1591.83 80.1 1589.6 81.936L1571.17 97.056C1567.89 99.756 1564.69 101.268 1561.49 103.68L1549.29 112.824L1542.77 116.316C1527.15 124.704 1524.27 129.924 1511.35 129.096C1483.57 127.332 1491.3 103.788 1478.63 103.32C1469.92 102.996 1473.99 113.292 1452.25 128.376L1442.28 135.288C1437.71 138.456 1433.93 141.912 1428.03 142.416C1417.3 143.388 1415.04 152.424 1401.86 144.432C1374.08 127.548 1405.18 145.872 1380.67 125.208C1371.7 129.996 1368.75 137.34 1361.7 140.976L1354.9 144.504C1349.35 147.348 1334.31 151.524 1334.52 151.416C1320.56 157.752 1300.51 149.94 1295.98 138.42C1293.93 133.236 1297.81 126.72 1294.97 123.48C1290.97 118.872 1278.74 128.088 1273.7 131.868L1261.53 141.012C1256.82 144.54 1237.46 150.876 1237.78 150.948C1235.01 150.516 1225.11 146.052 1221.48 139.968C1208.77 118.476 1259.84 91.044 1251.2 85.932C1244.11 81.756 1224.25 89.676 1211.79 92.916L1211.83 92.952ZM1417.27 119.34C1431.95 122.184 1441.6 108.936 1452.32 103.464C1459.56 99.756 1463.95 92.808 1470.25 86.832C1472.26 84.924 1470.86 79.2 1470.43 75.492C1470 71.964 1465.07 72.036 1463.16 72.36C1468.02 71.532 1454.16 77.148 1451.93 78.84L1439.76 87.876L1430.44 94.284C1427.71 96.156 1425.94 98.208 1423.93 100.764L1414.61 112.644C1412.55 115.272 1414.82 118.872 1417.23 119.34H1417.27Z" fill="#EBFA32"/>
<path d="M776.585 152.64C771.942 153.324 767.947 155.844 763.52 156.168L739.766 157.932C736.239 158.184 733.396 159.552 729.077 160.704L716.48 164.16C708.561 166.32 691.069 175.32 686.571 165.42C684.195 160.236 684.915 151.056 686.571 145.764C690.926 131.904 685.347 141.3 698.376 125.712L716.372 104.148C719.071 100.908 721.158 98.1 722.886 94.752L726.305 88.056C729.472 81.9 754.594 54.396 756.394 46.476C760.209 29.7 762.045 27.936 768.955 23.724C772.986 21.24 784.935 25.776 785.799 33.552C787.023 44.316 771.223 56.412 766.436 66.6C762.369 75.276 733 96.192 747.612 97.92C756.394 98.964 773.202 92.376 777.377 89.316C781.84 86.04 789.074 90.324 793.861 87.696C813.477 77.04 845.437 101.772 845.221 114.912C845.113 120.924 833.956 134.424 826.505 138.168L809.05 146.952L794.473 150.048L776.477 152.64H776.585ZM812.973 111.24C811.137 108.828 798.252 104.904 789.902 107.964C786.267 109.296 770.683 113.184 768.379 114.3L741.026 127.908C738.578 129.132 731.416 130.644 732.676 135.936C733.935 141.228 743.617 138.024 747.936 136.044C747.648 136.152 827.225 130.176 812.973 111.24Z" fill="#EBFA32"/>
<path d="M269.683 169.416C270.511 169.128 244.093 182.844 239.235 178.056C236.931 175.788 234.844 176.688 231.712 175.644C219.619 171.576 215.948 153.648 215.876 153.54L212.637 146.196C211.629 143.928 219.835 138.888 215.48 123.948C210.549 119.484 206.59 124.848 202.559 128.124C213.177 119.556 165.92 149.328 175.494 145.008C162.681 150.768 146.125 183.744 137.775 181.98C124.926 179.244 130.252 162.072 132.628 155.412C134.643 149.76 138.351 145.98 141.014 142.02C150.012 128.52 147.384 96.192 154.619 89.388C155.986 88.092 158.902 87.516 161.385 86.076C165.308 83.808 174.594 89.172 175.17 94.176C175.782 99.684 175.89 102.888 178.769 107.892C184.168 117.288 202.775 101.088 203.531 100.728L220.699 92.52C228.005 89.028 238.155 91.548 246.613 92.124C252.911 92.376 250.572 113.22 249.708 116.352L246.577 127.872C245.065 133.416 237.579 141.768 242.366 146.448C247.801 151.704 270.187 144.108 282.029 135.18L294.338 125.892C300.204 121.464 326.766 101.88 325.974 119.988C320.791 126.36 314.529 134.244 306.863 138.276C297.973 142.956 294.122 153 285.124 156.924C278.429 159.84 276.09 167.328 269.647 169.452L269.683 169.416Z" fill="#EBFA32"/>
<path d="M663.684 110.34C661.452 119.556 635.179 136.116 632.191 138.24L623.122 144.612C629.78 139.932 556.501 172.296 550.635 153.648C549.951 151.416 548.079 146.952 546.64 145.8C542.249 142.164 532.459 146.304 526.304 144.288C525.657 115.56 524.181 136.548 534.331 115.452L538.362 107.064C540.809 101.988 554.594 87.012 554.558 78.48C554.558 75.168 560.388 74.052 566.687 60.336C570.178 52.74 568.918 45.936 570.754 39.564C572.985 31.752 580.22 24.12 587.058 26.64C592.061 28.476 596.812 30.816 597.784 33.804C601.131 44.172 584.395 62.46 577.628 80.928C575.721 86.148 568.918 89.028 567.227 95.94C566.183 100.116 572.41 103.86 576.477 100.692L588.282 91.584C583.315 95.4 610.021 78.912 603.974 81.756L621.142 73.656C630.392 69.3 642.665 73.368 653.354 72.72C655.622 75.132 657.025 78.588 660.481 78.948C670.018 79.848 666.707 97.668 665.52 102.564L663.648 110.268L663.684 110.34ZM582.703 135.936C587.13 132.156 592.277 131.94 596.668 131.652C604.658 126.756 611.676 123.552 620.278 119.736C629.312 111.312 643.169 103.248 637.842 92.34C635.683 84.312 586.014 113.832 582.271 116.388L572.877 122.868C569.206 125.388 566.255 128.34 562.44 131.868C564.347 135.684 566.579 135.648 570.322 138.78C573.957 136.692 577.232 133.704 582.703 135.9V135.936Z" fill="#EBFA32"/>
<path d="M406.669 169.524C400.083 169.128 402.278 156.312 383.167 160.992C379.567 166.968 355.885 175.716 351.854 171.72C354.445 174.276 326.516 163.728 333.03 149.148C336.666 141.012 335.514 135.108 353.618 122.868C357.217 120.42 392.884 102.816 396.052 101.772L406.957 98.208C417.394 94.824 437.082 87.66 446.799 92.592C454.142 96.3 452.738 111.312 445.468 113.04C440.897 114.12 428.876 130.212 431.827 136.152C434.454 141.48 441.185 137.916 444.496 135.576L454.286 128.736L472.569 113.472C474.657 111.744 479.912 113.292 481.675 113.832C482.143 116.964 483.655 122.868 481.603 124.812C476.636 131.94 444.388 159.084 441.797 160.056C421.066 167.796 439.745 171.54 406.741 169.524H406.669ZM394.108 131.868C396.195 127.584 393.172 124.092 389.753 126.288C382.015 131.292 354.193 142.2 364.163 143.028C367.222 148.68 392.092 135.972 394.108 131.868Z" fill="#EBFA32"/>
<path d="M29.6917 195.696C23.1773 197.748 18.0665 199.548 11.624 195.948C5.64942 192.564 -2.08875 188.424 0.466645 178.596C1.40242 174.96 6.08131 171.648 9.57249 169.092C15.1512 164.988 20.19 166.536 23.7171 169.488C33.3269 166.536 36.6741 156.996 37.106 149.868L38.7616 122.832C38.5096 126.72 41.6049 107.172 44.2323 103.644C55.1737 88.776 68.4185 77.328 83.463 71.532C93.0727 67.824 100.127 69.732 109.953 72.756C115.927 74.592 116.395 78.444 116.395 83.664C116.359 96.912 91.849 92.844 81.4115 97.596C77.9923 99.144 76.4087 102.744 72.4496 104.004C66.0431 106.056 63.3438 111.816 60.9323 117.54C52.0784 138.42 59.7086 146.556 55.6776 160.128C48.2993 184.824 55.4256 187.596 29.7277 195.696H29.6917Z" fill="#EBFA32"/>
<path d="M1002.68 161.496C992.93 164.556 978.606 164.484 973.927 154.224C971.299 148.464 973.999 142.416 976.302 139.608C984.184 129.852 994.838 138.456 1001.68 133.668C1015.1 124.272 995.162 98.532 1002.72 76.5L1005.28 69.084C1006.97 64.116 1012.47 59.04 1017.33 56.664L1025.54 52.632C1040.98 45.072 1043.14 40.68 1054.84 47.052C1059.3 49.464 1061.31 51.408 1061.28 55.26C1061.13 69.228 1059.55 61.884 1032.02 71.136C1010.96 78.192 1026.44 108.828 1028.67 117.288C1030.51 124.164 1030.79 133.524 1028.74 139.824C1024.57 152.712 1013.88 158.004 1002.65 161.532L1002.68 161.496Z" fill="#EBFA32"/>
<path d="M1721.37 131.328C1716.43 132.3 1709.52 132.84 1706.75 130.968C1693.08 121.788 1692.82 109.584 1692.14 108.072C1684.58 91.2241 1695.06 78.5521 1696.53 69.0121C1698.08 58.9681 1718.99 53.3881 1729.03 57.7081C1739.07 62.0281 1738.17 73.8001 1733.78 80.3881C1747.21 100.872 1731.98 129.24 1721.4 131.328H1721.37ZM1715.75 97.3801C1715.75 95.976 1714.6 94.8241 1713.2 94.8241C1711.79 94.8241 1710.64 95.976 1710.64 97.3801C1710.64 98.784 1711.79 99.9361 1713.2 99.9361C1714.6 99.9361 1715.75 98.784 1715.75 97.3801Z" fill="#EBFA32"/>
<path d="M1680.3 3.27599C1686.35 4.31999 1683.58 17.532 1682.32 19.224C1679.4 23.04 1668.57 25.056 1662.45 18.432C1659.86 15.624 1658.2 14.616 1658.42 11.34C1658.85 3.20399 1672.96 -1.07076e-05 1672.71 -1.07076e-05C1675.95 -0.108011 1676.81 2.66399 1680.3 3.27599Z" fill="#EBFA32"/>
<path d="M914.221 134.928L913.753 150.732C908.138 150.984 903.927 151.02 899.032 150.732C896.909 147.528 895.361 145.98 892.158 143.856C891.87 138.96 891.87 134.784 892.158 129.096H909.974C911.305 131.94 913.681 132.48 914.185 134.928H914.221Z" fill="#EBFA32"/>
</g>
<defs>
<clipPath id="clip0_2_27">
<rect width="1739" height="198" fill="white"/>
</clipPath>
</defs>
</svg>
